build/img/mini-logo.svg

<svg width="26" height="23" viewBox="0 0 26 23" fill="none" xmlns="http://www.w3.org/2000/svg">
<path d="M18.502 20.6177C21.5397 18.7335 23.435 15.4156 23.435 11.7686C23.435 8.61525 22.0212 5.70452 19.6663 3.75537L13.998 16.897H12.002L6.33367 3.75537C3.97879 5.70452 2.56498 8.61525 2.56498 11.7686C2.56498 15.4156 4.46027 18.7335 7.49798 20.6177L6.47811 23C2.5037 20.6913 0 16.4465 0 11.7686C0 7.19887 2.45556 2.40829 7.50673 0L13.0175 12.7258L18.4933 0C23.5444 2.40829 26 7.19887 26 11.7686C26 16.4465 23.4963 20.6957 19.5219 23L18.502 20.6177Z" fill="white"/>
</svg>

<svg width="26" height="23" fill="none" xmlns="http://www.w3.org/2000/svg"><path d="M18.502 20.618a10.401 10.401 0 004.933-8.85c0-3.153-1.414-6.063-3.769-8.013l-5.668 13.142h-1.996L6.334 3.755a10.383 10.383 0 00-3.769 8.014c0 3.647 1.895 6.964 4.933 8.849L6.478 23A12.98 12.98 0 010 11.769C0 7.199 2.456 2.409 7.507 0l5.51 12.726L18.494 0C23.544 2.408 26 7.199 26 11.769c0 4.678-2.504 8.927-6.478 11.231l-1.02-2.382z" fill="#fff"/></svg>
